packages/ui/public/icons/tipped-star-default-icon.svg

<svg width="27" height="26" viewBox="0 0 27 26" fill="none" xmlns="http://www.w3.org/2000/svg">
  <path d="M11.8787 8.81544L13.7699 0L15.6611 8.81544C15.9009 9.94017 16.7812 10.8187 17.9044 11.0619L26.7076 12.9557L17.9044 14.8495C16.7812 15.0896 15.9039 15.9711 15.6611 17.0959L13.7699 25.9113L11.8787 17.0959C11.6389 15.9711 10.7586 15.0926 9.63544 14.8495L0.832245 12.9557L9.63544 11.0619C10.7586 10.8217 11.6359 9.94017 11.8787 8.81544Z" fill="#BF7AF0" />
</svg>

<svg width="27" height="26" fill="none" xmlns="http://www.w3.org/2000/svg"><path d="M11.879 8.815 13.769 0l1.892 8.815a2.926 2.926 0 0 0 2.243 2.247l8.804 1.894-8.804 1.894c-1.123.24-2 1.121-2.243 2.246L13.77 25.91l-1.891-8.815a2.926 2.926 0 0 0-2.244-2.246L.832 12.956l8.803-1.894c1.124-.24 2-1.122 2.244-2.247Z" fill="#BF7AF0"/></svg>
